X:1
T:Maggie Cameron  "1."
M:C
L:1/8
Q:80
C:
S:Strathspey
K:HP
f | \
{gef}e2{gcd}c/2{e}A3/2{g}c/2e3/2{gcd}c/2{e}A3/2 | \
{gef}e3/2c/2{g}A3/2{d}c/2{gef}e2{gfg}f2 | \
{gef}e2{gcd}c/2{e}A3/2{g}c/2e3/2{gcd}c/2{e}A3/2 |
{Gdc}d3/2{g}B/2{d}G3/2B/2{Gdc}d2{gfg}f2 | \
{gef}e2{gcd}c/2{e}A3/2{g}c/2e3/2{gcd}c/2{e}A3/2 | \
{gef}e3/2c/2{g}A3/2{d}c/2{gef}((3e3/2A/2agf) |
{gef}e3/2A/2{gcd}c/2{e}A3/2{d}((3ce{g}A){gcd}c/2{e}A3/2 | \
{Gdc}d3/2{g}B/2{d}G3/2B/2{Gdc}d2{gfg}f2|]
{g}e/2a3/2{cd}c3/2a/2e/2a3/2{cd}c/2a3/2 |
((3gfe){ag}a3/2c/2{gef}e2{gfg}f2 | \
{g}e/2a3/2{cd}c/2a3/2e3/2f/2{gf}g3/2e/2 | \
{g}((3dcB){gf}g3/2B/2{Gdc}d2{gfg}f2 |
{g}e/2a3/2{cd}c3/2a/2e/2a3/2{cd}c/2a3/2 | \
((3gfe){ag}a3/2c/2{gef}e2{gf}g2 | \
((3agf){gf}((3g3/2e/2{g}faA){gef}e3/2c/2 |
{g}((3dcB){gf}g3/2B/2{Gdc}d2{g}((3fga)|]
{ef}e2{gcd}c/2e3/2{gAGAG}A3/2e/2{gcd}c/2e3/2 | \
{gAGAG}A3/2e/2{gcd}c/2e3/2{gAGAG}A3/2e/2{ag}a2 |
{fg}f/2e3/2{gcd}c/2e3/2{gAGAG}A3/2e/2{gcd}c/2e | \
{g}((3dcB){gf}g3/2B/2{Gdc}d2{gfg}f2 | \
{gef}e2{gcd}c/2e3/2{gAGAG}A3/2e/2{gcd}c/2e3/2 |
{gAGAG}A3/2e/2{gcd}c/2e3/2{gAGAG}A3/2e/2{ag}a2 | \
e/2a3/2{cd}c3/2a/2e/2a3/2{cd}c3/2a/2 | \
((3dcB){gf}g3/2B/2{Gdc}d2{gfg}f2|]
{g}e/2a3/2{g}a3/2g/2{fg}f3/2e/2{ag}a3/2e/2 | \
{gcd}c3/2e/2{ag}a3/2e/2{g}c/2{GdG}e3/2{gfg}f2 | \
{g}e/2a3/2{g}a3/2e/2{g}((3faA){gef}e3/2c/2 |
{g}((3dcB){gf}g3/2B/2{Gdc}d2{gfg}f2 | \
{g}e/2a3/2{g}a3/2g/2{fg}f3/2e/2{ag}a3/2e/2 | \
{ag}a3/2A/2{gef}e3/2d/2{g}c/2{GdG}e3/2{g}((3efg/2) |
((3agf){gf}((3g3/2e/2{g}faA){gef}e3/2c/2 | \
{g}((3dcB){gf}g3/2B/2{Gdc}d2{g}((3fga)|]
